!!!!SEGMENT: pl-kk--kk-i-3--047_anonim--ave-maria.krn
!!!cenid: 15xx:701
!!!COM: Anonim
!!!COM-rismid: pe30004985
!!!CDT:
!!!CNT:
!!!OTL: Ave Maria
!!!PDT:
!!!AGN:
!!!SMS-siglum: PL-Kk
!!!SMS-shelfmark: Kk.I.3
!!!SMS-shelfwork: 047 W
!!!SMS-variant:
!!!SMS-altvar:
!!!NIFC-rismid: 1001145493
!!!URL-scan: http://repozytorium.nifc.pl/skany/pl-kk-nut--i-3
!!!ONB-nifc: UWAGA: Discantus (s. 131v-133r, skan 0134-0135), Tenor (s. 99v-100v, skan 0272-0273), Bassus (s. 127r-128r, skan 0430-0431)
!!!AIN: 1 bass 1 soprn 1 tenor
!!!key: G:mix
**kern	**text	**kern	**text	**kern	**text
*part3	*part3	*part2	*part2	*part1	*part1
*staff3	*staff3	*staff2	*staff2	*staff1	*staff1
*I"[Bassus]	*	*I"[Tenor]	*	*I"[Discantus]	*
*I'[B]	*	*I'[T]	*	*I'[S]	*
*Ibass	*	*Itenor	*	*Isoprn	*
*ICvox	*	*ICvox	*	*ICvox	*
*clefF4	*	*clefC4	*	*clefC3	*
*k[]	*	*k[]	*	*k[]	*
*G:mix	*	*G:mix	*	*G:mix	*
*M2/1	*	*M2/1	*	*M2/1	*
*met(C|)	*	*met(C|)	*	*met(C|)	*
=1-	=1-	=1-	=1-	=1-	=1-
*2\right	*	*2\right	*	*2\right	*
*lig	*	*lig	*	*	*
!!LO:TX:t=P:problem:metrum przed kluczem:global	!
!!LO:TX:t=P:problem:all\middle or right:global
1FF	A-	1F	A-	1f	A-
1C	.	1G	.	2e/	.
.	.	.	.	1g\	.
*Xlig	*	*Xlig	*	*	*
=2-	=2-	=2-	=2-	=2-	=2-
*	*	*lig	*	*	*
2AA/	.	1A	.	.	.
2FF/	.	.	.	2.f/	.
1C	.	1G	.	.	.
.	.	.	.	8e/L	.
.	.	.	.	8d/J	.
.	.	.	.	2e/	.
*	*	*Xlig	*	*	*
=3-	=3-	=3-	=3-	=3-	=3-
*	*	*lig	*	*	*
2FF/	.	1A	.	1c	.
2.F\	.	.	.	.	.
.	.	1F	.	0d	.
4E/	.	.	.	.	.
4D/	.	.	.	.	.
4C/	.	.	.	.	.
*	*	*Xlig	*	*	*
=4-	=4-	=4-	=4-	=4-	=4-
1BB	.	1G	.	.	.
*	*	*lig	*	*	*
2AA/	.	1A	.	2c/	.
*custos:D	*	*	*	*	*
!LO:LB:g=original	!	!	!	!	!
2.D/	.	.	.	2d/	.
=5-	=5-	=5-	=5-	=5-	=5-
.	.	1F	.	2A/	.
4C/	.	.	.	.	.
*	*	*	*	*custos:d	*
!	!	!	!	!LO:LB:g=original	!
4BB/	.	.	.	1d	.
4AA/	.	.	.	.	.
*	*	*Xlig	*	*	*
1GG	.	1G	.	.	.
.	.	.	.	2B/	.
=6-	=6-	=6-	=6-	=6-	=6-
*	*	*lig	*	*	*
1r	.	1F	.	2c/	.
.	.	.	.	1d	.
2r	.	1E	.	.	.
2G\	.	.	.	2c/	.
*	*	*Xlig	*	*	*
=7-	=7-	=7-	=7-	=7-	=7-
2F\	.	1D	.	2d/	.
2.D/	.	.	.	1f	.
.	.	1F	.	.	.
4C/	.	.	.	.	.
2.F\	.	.	.	4e/	.
.	.	.	.	4d/	.
=8-	=8-	=8-	=8-	=8-	=8-
.	.	1F	.	2c/	.
4E/	.	.	.	.	.
4D/	.	.	.	1.d	.
4C/	.	.	.	.	.
*	*	*custos:G	*	*	*
!	!	!LO:LB:g=original	!	!	!
*	*	*lig	*	*	*
1BB	.	1G	.	.	.
=9-	=9-	=9-	=9-	=9-	=9-
2AA/	.	1A	.	1c	.
2FF/	.	.	.	.	.
*custos:C	*	*Xlig	*	*	*
!LO:LB:g=original	!	!	!	!	!
1C	.	1G	.	2r	.
.	.	.	.	2.c/	.
=10-	=10-	=10-	=10-	=10-	=10-
2FF/	.	1F	.	.	.
.	.	.	.	4B/	.
1F	.	.	.	2A/	.
*	*	*lig	*	*custos:G	*
!	!	!	!	!LO:LB:g=original	!
.	.	1G	.	2G/	-ue
2E/	.	.	.	1g\	Ma-
=11-	=11-	=11-	=11-	=11-	=11-
1D	.	1A	.	.	.
.	.	.	.	2f\	.
*	*	*Xlig	*	*	*
2GG/	.	1G	-ve	2g\	.
2.G\	.	.	.	4f\	.
.	.	.	.	4e\	.
=12-	=12-	=12-	=12-	=12-	=12-
*	*	*lig	*	*	*
.	.	1G	Ma-	2d/	.
4F\	.	.	.	.	.
2E/	.	.	.	1g	-ri-
1D	-ue	1A	.	.	.
.	.	.	.	2f\	-a
*	*	*Xlig	*	*	*
=13-	=13-	=13-	=13-	=13-	=13-
*	*	*lig	*	*	*
1C	Ma-	1c	-ri-	1g	.
*	*	*	*	*	*ij
1G	-ri-	1B	.	1.g	A-
*	*	*Xlig	*	*	*
=14-	=14-	=14-	=14-	=14-	=14-
2E/	.	1c	.	.	.
1F	.	.	.	1a	.
.	.	1A	.	.	.
2D/	.	.	.	4g\	.
.	.	.	.	4f\	.
=15-	=15-	=15-	=15-	=15-	=15-
2E/	.	1G	.	2g\	.
2C/	.	.	.	2e/	.
*custos:D	*	*	*	*custos:f	*
!LO:LB:g=original	!	!LO:TX:t=30	!	!LO:LB:g=original	!
!LO:TX:t=30	!	!	!	!LO:TX:t=30	!
1D	.	1F	.	1f	-ve
=16-	=16-	=16-	=16-	=16-	=16-
*	*	*lig	*	*	*
1C	.	1G	.	2.e\	Ma-
.	.	.	.	4d/	.
2FF/	-a	1A	.	4c/	.
.	.	.	.	4B/	.
*	*ij	*	*	*	*
2F\	A-	.	.	2A/	.
*	*	*Xlig	*	*	*
=17-	=17-	=17-	=17-	=17-	=17-
2C/	.	2.c\	.	2G/	.
1F	.	.	.	2A/	.
.	.	4B/	.	.	.
*	*	*custos:A	*	*	*
!	!	!LO:LB:g=original	!	!	!
.	.	2A/	.	2F/	.
2E/	.	2G/	.	2G/	.
=18-	=18-	=18-	=18-	=18-	=18-
2D/	.	2F/	.	2A/	.
2BB/	.	2G/	.	1G	-ri-
2C/	.	1A	.	.	.
2D/	.	.	.	2F/	.
=19-	=19-	=19-	=19-	=19-	=19-
1GG	-ue	1G	-a	1G	-a
*	*	*lig	*	*	*Xij
2r	.	1G	gra-	0d	gra-
*lig	*	*	*	*	*
1G\	Ma-	.	.	.	.
=20-	=20-	=20-	=20-	=20-	=20-
.	.	1D	.	.	.
1F	.	.	.	.	.
*Xlig	*	*Xlig	*	*	*
.	.	1F	.	1A	.
2D/	-ri-	.	.	.	.
=21-	=21-	=21-	=21-	=21-	=21-
*	*	*lig	*	*lig	*
1C	.	1E	.	0c	.
*custos:FF	*	*	*	*	*
!LO:LB:g=original	!	!	!	!	!
1FF	.	1F	.	.	.
*	*	*Xlig	*	*	*
=22-	=22-	=22-	=22-	=22-	=22-
0GG	.	0D	.	0B	.
*	*	*	*	*Xlig	*
*	*	*	*	*custos:c	*
=23-	=23-	=23-	=23-	=23-	=23-
*lig	*	*	*	*	*
!	!	!	!	!LO:LB:g=original	!
1C	.	1E	.	1c	.
*	*	*lig	*	*lig	*
1D	.	1F	.	1A	.
*Xlig	*	*	*	*	*
=24-	=24-	=24-	=24-	=24-	=24-
1GG	-a	1G	.	1B	.
*	*Xij	*Xlig	*	*	*
*	*	*lig	*	*	*
!	!	!	!	!LO:TX:t=2	!
1r	.	1F	-ci-	0c	.
*	*	*	*	*Xlig	*
=25-	=25-	=25-	=25-	=25-	=25-
1C	gra-	1G	.	.	.
*	*	*Xlig	*	*	*
2.G\	.	1G	-a	1d	.
4F/	-ci-	.	.	.	.
=26-	=26-	=26-	=26-	=26-	=26-
*	*	*lig	*	*lig	*
1E	-a	1G	ple-	1c	-ci-
1D	.	1A	.	1d	.
*	*	*Xlig	*	*Xlig	*
*	*	*custos:G	*	*	*
=27-	=27-	=27-	=27-	=27-	=27-
!	!	!LO:PB:g=original	!	!	!
1.G	.	1G	.	1d	-a
!	!	!LO:TX:t=24	!	!	!
.	.	1G	-na	2.B/	ple-
!LO:TX:t=24	!	!	!	!	!
2E/	.	.	.	.	.
.	.	.	.	4c/	.
=28-	=28-	=28-	=28-	=28-	=28-
!	!	!LO:TX:t=P:problem=dopisane dźwięki	!	!	!
2F\	.	1r	.	2d/	.
2.A\	ple-	.	.	1e	.
.	.	0r	.	.	.
4G\	.	.	.	.	.
*custos:F	*	*	*	*	*
!LO:PB:g=original	!	!	!	!LO:TX:t=24	!
2F/	.	.	.	1d\	.
=29-	=29-	=29-	=29-	=29-	=29-
1E	.	.	.	.	.
.	.	.	.	2c/	.
*	*	*lig	*	*	*
1D	-na	1A	do-	1d	.
=30-	=30-	=30-	=30-	=30-	=30-
!LO:TX:t=P:problem=dopisane dźwięki	!	!	!	!	!
0r	.	1c	.	2c/	.
.	.	.	.	1A	-na
*	*	*Xlig	*	*	*
.	.	1B	.	.	.
.	.	.	.	2G/	.
*	*	*	*	*custos:A	*
=31-	=31-	=31-	=31-	=31-	=31-
*	*	*lig	*	*	*
!	!	!	!	!LO:PB:g=original	!
1r	.	1A	.	0A	.
*lig	*	*	*	*	*
1D	do-	1d	.	.	.
=32-	=32-	=32-	=32-	=32-	=32-
!	!	!LO:TX:a:t=2	!	!	!
1F	.	0c	.	00r	.
*Xlig	*	*Xlig	*	*	*
1E	.	.	.	.	.
=33-	=33-	=33-	=33-	=33-	=33-
*lig	*	*	*	*	*
1D	.	0B	.	.	.
1G	.	.	.	.	.
=34-	=34-	=34-	=34-	=34-	=34-
!LO:TX:a:t=2	!	!	!	!	!
*	*	*lig	*	*	*
0F	.	1A	.	00r	.
.	.	1c	.	.	.
*Xlig	*	*Xlig	*	*	*
=35-	=35-	=35-	=35-	=35-	=35-
1E	.	1G	.	.	.
1D	.	1r	.	.	.
=36-	=36-	=36-	=36-	=36-	=36-
*lig	*	*lig	*	*	*
1F	.	1A	.	1A	do-
1C	.	1c	.	2G/	.
.	.	.	.	1A/	.
*Xlig	*	*Xlig	*	*	*
=37-	=37-	=37-	=37-	=37-	=37-
0r	.	1B	.	.	.
.	.	.	.	2G/	.
*	*	*lig	*	*	*
.	.	1A	.	1A	.
=38-	=38-	=38-	=38-	=38-	=38-
*lig	*	*	*	*	*
1D	.	1d	.	2D/	.
.	.	.	.	2.F/	.
!	!	!LO:TX:b:t=2	!	!	!
1F	.	0c	.	.	.
.	.	.	.	4G/	.
.	.	.	.	1A/	.
*Xlig	*	*Xlig	*	*	*
=39-	=39-	=39-	=39-	=39-	=39-
1E	.	.	.	.	.
.	.	.	.	4G/	.
.	.	.	.	4A/	.
*lig	*	*	*	*	*
1D	.	0B	.	4B/	.
.	.	.	.	4c/	.
.	.	.	.	1d\	.
=40-	=40-	=40-	=40-	=40-	=40-
1G	.	.	.	.	.
.	.	.	.	2e/	.
*	*	*	*	*custos:f	*
!LO:TX:t=2	!	!	!	!LO:LB:g=original	!
0F	.	1A	.	1.f	.
*Xlig	*	*custos:c	*	*	*
=41-	=41-	=41-	=41-	=41-	=41-
!	!	!LO:LB:g=original	!	!	!
.	.	1c	.	.	.
.	.	.	.	1.c	.
1E	.	1G	.	.	.
*custos:D	*	*	*	*	*
=42-	=42-	=42-	=42-	=42-	=42-
*lig	*	*	*	*	*
!LO:LB:g=original	!	!	!	!	!
1D	.	0A	.	1d	.
1F	.	.	.	2.c/	.
.	.	.	.	4d/	.
*Xlig	*	*	*	*	*
=43-	=43-	=43-	=43-	=43-	=43-
*	*	*lig	*	*	*
!LO:TX:t=34	!	!	!	!	!
0C	.	1c	.	0e	-mi-
!	!	!LO:TX:t=30	!	!	!
.	.	1G	.	.	.
*	*	*Xlig	*	*	*
=44-	=44-	=44-	=44-	=44-	=44-
*lig	*	*	*	*	*
1D	.	0F	.	1d	-nvs
1F	.	.	.	1c	.
*Xlig	*	*	*	*	*
=45-	=45-	=45-	=45-	=45-	=45-
1C	.	1G	-mi-	2r	.
*	*	*	*	*	*ij
.	.	.	.	1g	do-
*lig	*	*	*	*	*
1BB	-mi-	1G	-nus	.	.
.	.	.	.	2g\	.
=46-	=46-	=46-	=46-	=46-	=46-
1C	.	0r	.	2e\	.
.	.	.	.	1g	.
*Xlig	*	*	*	*	*
1C	-nus	.	.	.	.
.	.	.	.	4f\	.
.	.	.	.	4e\	.
=47-	=47-	=47-	=47-	=47-	=47-
0r	.	1r	.	2d/	.
*	*	*	*	*custos:c	*
!	!	!	!	!LO:LB:g=original	!
.	.	.	.	1c	-mi-
.	.	2r	.	.	.
.	.	2G/	te-	2B/	.
=48-	=48-	=48-	=48-	=48-	=48-
0C	te-	2E/	.	0c	-nvs
*	*	*	*	*	*Xij
.	.	2C/	.	.	.
.	.	1G	.	.	.
=49-	=49-	=49-	=49-	=49-	=49-
1AA	.	2C/	.	00r	.
.	.	1c	.	.	.
*lig	*	*	*	*	*
1GG	.	.	.	.	.
.	.	2B/	.	.	.
*	*	*custos:c	*	*	*
=50-	=50-	=50-	=50-	=50-	=50-
!	!	!LO:LB:g=original	!	!	!
*	*	*M3/2	*	*	*
*	*	*	*	*	*
*	*	*Xtuplet	*	*	*
1AA	.	3.c\	.	.	.
.	.	6B/	.	.	.
.	.	3A/	.	.	.
!LO:TX:a:t=2	!	!	!	!	!
0C	.	3.G/	.	.	.
.	.	6F/	.	.	.
.	.	6E/	.	.	.
.	.	6D/	.	.	.
*Xlig	*	*	*	*	*
=51-	=51-	=51-	=51-	=51-	=51-
.	.	3%2C	.	0r	.
.	.	3c\	.	.	.
1D	.	6B/	.	.	.
.	.	6A/	.	.	.
.	.	3%2B	.	.	.
=52-	=52-	=52-	=52-	=52-	=52-
*	*	*M2/1	*	*M3/2	*
*	*	*met(C|)	*	*Xtuplet	*
1C	.	1c	.	3.g\	te-
.	.	.	.	6f\	cum
.	.	.	.	3e/	.
1BB	.	1d	.	3.d/	.
.	.	.	.	6c/	.
.	.	.	.	6B/	.
.	.	.	.	6A/	.
=53-	=53-	=53-	=53-	=53-	=53-
*lig	*	*	*	*	*
1C	.	2.c/	.	3%2G	.
.	.	.	.	3g\	.
.	.	4B/	.	.	.
*	*	*custos:A	*	*	*
!	!	!LO:LB:g=original	!	!	!
1D	.	1A	-cum	6f\	.
.	.	.	.	6e\	.
.	.	.	.	3.f\	.
.	.	.	.	12e\L	.
.	.	.	.	12f\J	.
*Xlig	*	*	*	*	*
*custos:C	*	*	*	*custos:g	*
=54-	=54-	=54-	=54-	=54-	=54-
!LO:LB:g=original	!	!	!	!LO:LB:g=original	!
*	*	*	*	*M2/1	*
*	*	*	*	*met(C|)	*
!LO:TX:t=27	!	!	!	!	!
0C	-cum	0r	.	2g\	.
.	.	.	.	2.e/	.
.	.	.	.	4c/	.
.	.	.	.	2.g\	Be-
=55-	=55-	=55-	=55-	=55-	=55-
00r	.	1r	.	.	.
.	.	.	.	4f\	-ne-
.	.	.	.	2e/	.
.	.	1G	Be-	2d/	.
.	.	.	.	1g\	.
=56-	=56-	=56-	=56-	=56-	=56-
.	.	1c	-ne-	.	.
.	.	.	.	4f\	.
.	.	.	.	4e/	.
*	*	*lig	*	*	*
.	.	1c	-di-	1f	-di-
=57-	=57-	=57-	=57-	=57-	=57-
00r	.	1d	.	2.g\	.
.	.	.	.	4f\	.
*	*	*Xlig	*	*	*
*	*	*lig	*	*	*
.	.	1e	.	4e/	.
.	.	.	.	4d/	.
.	.	.	.	1c\	.
=58-	=58-	=58-	=58-	=58-	=58-
.	.	1d	.	.	.
.	.	.	.	2B/	.
*	*	*Xlig	*	*	*
*	*	*lig	*	*	*
.	.	1c	-cta-	1c	.
*	*	*	*	*custos:G	*
=59-	=59-	=59-	=59-	=59-	=59-
!	!	!	!	!LO:LB:g=original	!
*	*	*	*	*clefC4	*
*	*	*	*	*lig	*
0r	.	1d	.	1G	.
*	*	*Xlig	*	*	*
.	.	1c	-tv	1A	.
*	*	*	*	*Xlig	*
=60-	=60-	=60-	=60-	=60-	=60-
*	*	*lig	*	*	*
1r	.	1c	.	1G	.
1GG	Be-	1B	.	2.G/	.
.	.	.	.	4F/	.
*	*	*Xlig	*	*	*
=61-	=61-	=61-	=61-	=61-	=61-
2AA/	-ne-	1c	.	4E/	.
.	.	.	.	4D/	.
1C	-di-	.	.	1E	.
*	*	*lig	*	*	*
.	.	1d	.	.	.
2BB/	-cta	.	.	2D/	.
=62-	=62-	=62-	=62-	=62-	=62-
*	*	*col	*	*	*
1C	.	2.c\	.	2E/	-cta-
.	.	.	.	1G	-tu
*	*	*Xlig	*	*	*
.	.	4B/	.	.	.
*lig	*	*Xcol	*	*	*
1D	.	1A	.	.	.
.	.	.	.	2F/	.
=63-	=63-	=63-	=63-	=63-	=63-
1E	.	1G	.	4G/	in
.	.	.	.	4A/	.
.	.	.	.	4B/	.
.	.	.	.	4c\	.
*	*	*	*	*custos:d	*
!LO:TX:a:t=2	!	!	!LO:PB:g=original	!	!
0D	.	00r	.	2d/	.
.	.	.	.	4D/	.
.	.	.	.	4E/	.
*Xlig	*	*	*	*	*
=64-	=64-	=64-	=64-	=64-	=64-
.	.	.	.	4F/	.
.	.	.	.	4G/	.
.	.	.	.	4A/	.
.	.	.	.	4B/	.
2C/	.	.	.	2c/	.
2AA/	.	.	.	2C/	.
=65-	=65-	=65-	=65-	=65-	=65-
2BB/	.	.	.	2D/	.
2GG/	.	.	.	1G	.
1D	tu	1A	in	.	.
.	.	.	.	2F/	.
*	*	*custos:G	*	*	*
=66-	=66-	=66-	=66-	=66-	=66-
*	*	*lig	*	*	*
!	!	!LO:LB:g=original	!	!	!
2r	.	1G	mu-	1G	.
1E	in	.	.	.	.
.	.	1c	.	2r	.
2C/	.	.	.	2.G/	mu-
*custos:G	*	*Xlig	*	*	*
=67-	=67-	=67-	=67-	=67-	=67-
!LO:LB:g=original	!	!	!	!	!
1G	.	1B	.	.	.
.	.	.	.	4A/	.
.	.	.	.	2B/	.
*	*	*	*	*custos:c	*
!	!	!	!	!LO:LB:g=original	!
*	*	*	*	*clefC3	*
2F\	mu-	1A	.	2c/	.
2.D/	.	.	.	1d\	.
=68-	=68-	=68-	=68-	=68-	=68-
.	.	1d	-li-	.	.
4E/	.	.	.	.	.
4F\	.	.	.	4c/	.
4G\	.	.	.	4B/	.
2A\	.	0c	-e-	2.A/	.
2.AA/	.	.	.	.	.
.	.	.	.	4B/	.
=69-	=69-	=69-	=69-	=69-	=69-
.	.	.	.	4c/	.
4BB/	.	.	.	4d/	.
4C/	.	.	.	4e\	.
4D/	.	.	.	4f\	.
4E/	.	1B	.	2g\	.
4F/	.	.	.	.	.
4G\	.	.	.	2G/	.
4E/	.	.	.	.	.
=70-	=70-	=70-	=70-	=70-	=70-
4F/	.	2.A/	.	4A/	.
4G\	.	.	.	4B/	.
1A	.	.	.	1c	.
.	.	4B/	.	.	.
.	.	4c\	.	.	.
.	.	4d\	.	.	.
*custos:G	*	*	*	*	*
!LO:LB:g=original	!	!	!	!	!
2G\	.	2e\	.	2B/	.
=71-	=71-	=71-	=71-	=71-	=71-
2F\	-li-	2d\	.	2A/	-li-
2E/	-e-	1c	.	1G	-e-
1D	-ri-	.	.	.	.
*	*	*	*	*custos:F	*
!	!	!	!	!LO:LB:g=original	!
.	.	2B/	.	2F/	-ri-
=72-	=72-	=72-	=72-	=72-	=72-
1C	-bus	1c	.	1G	-bus
0G	.	0d	-ri-	1r	.
=73-	=73-	=73-	=73-	=73-	=73-
.	.	.	.	1g	et
1r	.	0c	-bvs	2g\	be-
.	.	.	.	2.e\	-ne-
=74-	=74-	=74-	=74-	=74-	=74-
1C	et	.	.	.	.
.	.	.	.	4f\	.
.	.	.	.	1g	.
1E	Be-	0r	.	.	.
.	.	.	.	4f\	.
.	.	.	.	4e\	.
=75-	=75-	=75-	=75-	=75-	=75-
1F	-ne-	.	.	2d/	.
.	.	.	.	2c/	.
*	*	*custos:G	*	*	*
!	!	!LO:PB:g=original	!	!	!
0G	.	1G	et	0g	.
=76-	=76-	=76-	=76-	=76-	=76-
.	.	1B	be-	.	.
*lig	*	*	*	*	*
1F	-di-	1c	-ne-	2c/	.
.	.	.	.	1f\	.
=77-	=77-	=77-	=77-	=77-	=77-
1D	.	0d	-di-	.	.
!	!	!	!	!LO:SIC:v:l:s=-di-	!
.	.	.	.	2f\	-dic-
*Xlig	*	*	*	*custos:f	*
!	!	!	!	!LO:LB:g=original	!
1F	.	.	.	2f\	-ctus
.	.	.	.	4e\	.
.	.	.	.	4d/	.
=78-	=78-	=78-	=78-	=78-	=78-
*lig	*	*lig	*	*	*
1C	-ctvs	1c	.	1e	.
1D	.	1A	.	1f	.
*Xlig	*	*	*	*	*
=79-	=79-	=79-	=79-	=79-	=79-
!	!	!LO:TX:a:t=2	!	!	!
1E	.	0c	.	1e	.
*custos:F	*	*	*	*	*
!LO:PB:g=original	!	!	!	!	!
1F	.	.	.	2c/	.
.	.	.	.	2f\	.
*	*	*Xlig	*	*	*
=80-	=80-	=80-	=80-	=80-	=80-
*M3/2	*	*	*	*	*
*Xtuplet	*	*	*	*	*
3.G\	.	1G	-ctus	2d/	.
6F/	.	.	.	2e\	.
3E/	.	.	.	.	.
3.D/	.	2A/	.	2f\	.
6C/	.	2.B/	.	2d/	.
6BB/	.	.	.	.	.
6AA/	.	.	.	.	.
=81-	=81-	=81-	=81-	=81-	=81-
3%2GG	.	.	.	1d	.
.	.	4c/	.	.	.
.	.	2d\	.	.	.
3G\	.	.	.	.	.
6F\	.	2.c/	.	1r	.
6E/	.	.	.	.	.
3%2F	.	.	.	.	.
.	.	4A/	.	.	.
=82-	=82-	=82-	=82-	=82-	=82-
*M2/1	*	*	*	*	*
*met(C|)	*	*	*	*	*
1G	.	1B	.	2r	.
.	.	.	.	2d/	frv-
2C/	.	2c/	.	2.e/	.
*	*	*custos:A	*	*	*
!	!	!LO:LB:g=original	!	!	!
2D/	.	1A\	.	.	.
.	.	.	.	8d/L	.
.	.	.	.	8c/J	.
*custos:E	*	*	*	*custos:B	*
=83-	=83-	=83-	=83-	=83-	=83-
!LO:LB:g=original	!	!	!	!LO:LB:g=original	!
1E	.	.	.	2B/	.
.	.	1G	fru-	2c/	.
1D	.	.	.	2A/	.
.	.	2F/	.	1d\	.
=84-	=84-	=84-	=84-	=84-	=84-
2BB/	.	1G	.	.	.
2C/	.	.	.	1e	.
2AA/	.	2A/	.	.	.
2D/	.	1F/	.	1d\	.
=85-	=85-	=85-	=85-	=85-	=85-
1AA	.	.	.	.	.
.	.	2E/	.	2c/	.
2.A\	fru-	1F	.	0d	-ctus
4G\	.	.	.	.	.
=86-	=86-	=86-	=86-	=86-	=86-
4F\	.	1D	-ctus	.	.
4E/	.	.	.	.	.
2.D/	.	.	.	.	.
*	*	*lig	*	*	*
.	.	1D	ven-	0r	.
4C/	-ctus	.	.	.	.
4BB/	.	.	.	.	.
4AA/	.	.	.	.	.
=87-	=87-	=87-	=87-	=87-	=87-
1GG	.	1E	.	.	.
*	*	*Xlig	*	*	*
2FF/	.	1F	.	1r	.
1F\	ven	.	.	.	.
=88-	=88-	=88-	=88-	=88-	=88-
*	*	*lig	*	*	*
.	.	1G	.	1c	ven-
2E/	.	.	.	.	.
*custos:D	*	*	*	*	*
!LO:LB:g=original	!	!	!	!	!
2D/	.	1A	.	2d/	.
2AA/	.	.	.	1e\	.
*	*	*Xlig	*	*	*
=89-	=89-	=89-	=89-	=89-	=89-
*	*	*lig	*	*	*
1D	.	1F	.	.	.
.	.	.	.	1d	.
1AA	.	1E	.	.	.
.	.	.	.	2c/	.
*	*	*Xlig	*	*	*
=90-	=90-	=90-	=90-	=90-	=90-
2r	.	0D	.	1d	.
2A\	fru	.	.	.	.
2F/	.	.	.	2.d/	.
2A\	.	.	.	.	.
.	.	.	.	4c/	.
*	*	*	*	*custos:B	*
=91-	=91-	=91-	=91-	=91-	=91-
!	!	!	!	!LO:PB:g=original	!
2.G\	.	2r	.	2.B/	.
*	*	*custos:E	*	*	*
!	!	!LO:LB:g=original	!	!	!
.	.	1E	.	.	.
4F\	.	.	.	4A/	.
2E/	.	.	.	2c/	.
2D/	.	2F/	.	2d/	.
=92-	=92-	=92-	=92-	=92-	=92-
*	*	*lig	*	*	*
1C	.	1G	.	1e	.
1r	.	1F	.	2d/	.
.	.	.	.	2.d/	.
*	*	*Xlig	*	*	*
=93-	=93-	=93-	=93-	=93-	=93-
2.D/	ven-	1A	.	.	.
.	.	.	.	4c/	.
.	.	.	.	2A/	.
4C/	.	.	.	.	.
2BB/	-tris	2G/	.	2B/	.
2AA/	.	2F/	.	2c/	.
=94-	=94-	=94-	=94-	=94-	=94-
2GG/	.	1G	.	2B/	.
*custos:C	*	*	*	*	*
!LO:LB:g=original	!	!	!	!	!
2.C/	.	.	.	2.e/	.
.	.	2G/	.	.	.
4BB/	.	.	.	4d/	.
4AA/	.	1A\	.	4c/	.
4GG/	.	.	.	4B/	.
=95-	=95-	=95-	=95-	=95-	=95-
2FF/	.	.	.	2A/	.
2GG/	.	1G	-tris	2B/	.
*	*	*	*	*custos:c	*
!	!	!	!	!LO:LB:g=original	!
1AA	.	.	.	1c	-tris
.	.	2F/	tu-	.	.
=96-	=96-	=96-	=96-	=96-	=96-
2GG/	.	1G	-i	1.B	tu-
2.G\	tu-	.	.	.	.
.	.	2r	.	.	.
4F\	.	.	.	.	.
*	*	*	*ij	*	*
4E/	.	2G/	ven-	1e\	.
4D/	.	.	.	.	.
=97-	=97-	=97-	=97-	=97-	=97-
2C/	.	2E/	.	.	.
2D/	.	2F/	.	1d	.
*	*	*custos:G	*	*	*
!	!	!LO:LB:g=original	!	!	!
1E	.	1G	.	.	.
.	.	.	.	2c/	.
=98-	=98-	=98-	=98-	=98-	=98-
2D/	.	2F/	.	2d/	.
1G	.	2E/	.	2c/	.
.	.	1D	-tris	1d	-j
*	*	*	*Xij	*	*
2F\	.	.	.	.	.
=99-	=99-	=99-	=99-	=99-	=99-
1.G	.	2r	.	2r	.
*	*	*	*	*	*ij
.	.	2d\	.	2d/	ven-
.	.	2B/	Tu-	2d/	-tris
4F\	.	2c\	-i	2e\	tu-
4E\	.	.	.	.	.
*custos:D	*	*	*	*	*
=100-	=100-	=100-	=100-	=100-	=100-
!LO:LB:g=original	!	!	!	!	!
2D/	.	1d	.	2f\	.
2GG/	.	.	.	4g\	.
.	.	.	.	4f\	.
2AA/	.	2c\	.	4e\	.
.	.	.	.	4d/	.
*	*	*	*	*custos:g	*
!	!	!	!	!LO:LB:g=original	!
2BB/	.	2B/	.	2.g\	.
=101-	=101-	=101-	=101-	=101-	=101-
2C/	.	1A	.	.	.
.	.	.	.	8f\L	.
.	.	.	.	8e\J	.
2D/	.	.	.	2f\	.
*	*	*	*	*lig	*
2E/	.	[1G;l	.	1g	.
4C/	.	.	.	.	.
4BB/	.	.	.	.	.
=102-	=102-	=102-	=102-	=102-	=102-
4C/	.	0G_	.	1.e	.
4D/	.	.	.	.	.
4E/	.	.	.	.	.
4D/	.	.	.	.	.
4E/	.	.	.	.	.
4F\	.	.	.	.	.
*	*	*	*	*Xlig	*
*	*	*	*	*lig	*
2.G\	.	.	.	1d\	.
=103-	=103-	=103-	=103-	=103-	=103-
.	.	0G_	.	.	.
4F/	.	.	.	.	.
4E/	.	.	.	1e	.
4D/	.	.	.	.	.
0C	-I	.	.	.	.
*	*	*	*	*Xlig	*
.	.	.	.	4d/	.
.	.	.	.	4c/	.
=104-	=104-	=104-	=104-	=104-	=104-
.	.	0G_	.	2.e\	.
.	.	.	.	4d/	.
[1GG;l	.	.	.	[1d;;l	-j
*	*	*	*	*	*Xij
=105-	=105-	=105-	=105-	=105-	=105-
0GG]	.	0G]	.	0d]	.
==	==	==	==	==	==
*-	*-	*-	*-	*-	*-
!!!system-decoration: [(s1,s2,s3)]
!!!RDF**kern: l = terminal long
!!!RDF**kern: > = above
!!!RDF**kern: < = below
!!!ENC: Katarzyna Serwa
!!!END: 2022-02-12
!!!ENC: Filip Voros
!!!END: 2022-02-01
